!!!OTL: DER ABT IST NICHT ZU HAUSE
!!!ARE: Europa, Mitteleuropa, Deutschland, Dresden
!!!SCT: K2562
!!!YEM: Copyright 1995, estate of Helmut Schaffrath.
**kern
*ICvox
*Ivox
*M2/4
*k[f#]
*G:
{8d
=1
8g
8g
8g
8b
=2
4g
8d}
{8d
=3
8g
8g
8g
8b
=4
4g
8d}
{8d
=5
8a
8a
8a
8a
=6
8b
8g
8g}
{8d
=7
8a
8a
8a
8a
=8
8b
8g
4g}
=9
{16dd
16dd
16dd
16dd
4dd}
==
!!!AGN: Kinder - Lied, Gesellschafts - Spiel
!!!ONB: ESAC (Essen Associative Code) Database: KINDER
!!!AMT: simple duple
!!!AIN: vox
!!!EED: Helmut Schaffrath
!!!EEV: 1.0
*-
